X: 41637
T: Up The Sides And Down The Middle
R: jig
M: 6/8
K: Dmajor
A|:ABc dcB|A2G F2A|d2d e2e|fed B2A|
ABc dcB|ABG F2g|agf edc|1 d3 c2B:|2 d3 dfg||
|:a2f d2A|B3 B2g|gef ecd|c2B Afg|
a2f d2c|B3 B2g|gef ecd|1 cBc d2f:|2 cBc d2||

